findly-builder/apps/searchassist/src/assets/icons/plus-blue.svg

<svg width="12" height="12" viewBox="0 0 12 12" fill="none" xmlns="http://www.w3.org/2000/svg">
<path d="M5.09091 11.0767H6.5483V6.40625H11.2188V4.95739H6.5483V0.286931H5.09091V4.95739H0.420455V6.40625H5.09091V11.0767Z" fill="#0D6EFD"/>
</svg>

<svg width="12" height="12" fill="none" xmlns="http://www.w3.org/2000/svg"><path d="M5.09 11.077h1.458v-4.67h4.67v-1.45h-4.67V.287H5.091v4.67H.42v1.45h4.67v4.67Z" fill="#0D6EFD"/></svg>
